X:0
T:Halling efter Albert Fossum
R:Halling
O:Bohuslän
S:efter Albert Fossum
N:Från Granquist.
B:Svenska Låtar Bohuslän
M: 2/4
L: 1/16
Q: "BPM=65"
K:G fgp=1
D |:G(AB)(G B>)(AF)A | G(AB)(G B>)(AF)A | GABc {/c}d2dc | A2AF D4:|
|:dedc d2BG | B2AF D2 D2 | dedc d2B(G | B)AFA G4:|
